icon/darkreader.svg

<svg viewBox="0 0 32 32" xmlns="http://www.w3.org/2000/svg"><defs><linearGradient x1="7.5789" y1="13.4737" x2="7.4331" y2="20.8984" id="gradient6390" gradientUnits="userSpaceOnUse"><stop offset="0%" stop-color="rgb(20,30,36)"/><stop offset="100%" stop-color="rgb(233,108,76)"/></linearGradient><linearGradient x1="7.5789" y1="13.4737" x2="7.5495" y2="17.6962" id="gradient6391" gradientUnits="userSpaceOnUse"><stop offset="0%" stop-color="rgb(20,30,36)"/><stop offset="100%" stop-color="rgb(233,108,76)"/></linearGradient><linearGradient x1="24.4079" y1="13.476" x2="24.5537" y2="20.9008" id="gradient6392" gradientUnits="userSpaceOnUse"><stop offset="0%" stop-color="rgb(20,30,36)"/><stop offset="100%" stop-color="rgb(233,108,76)"/></linearGradient><linearGradient x1="24.4079" y1="13.476" x2="24.4373" y2="17.6985" id="gradient6393" gradientUnits="userSpaceOnUse"><stop offset="0%" stop-color="rgb(20,30,36)"/><stop offset="100%" stop-color="rgb(233,108,76)"/></linearGradient><linearGradient x1="7.5789" y1="13.6579" x2="7.4395" y2="20.7578" id="gradient6397" gradientUnits="userSpaceOnUse"><stop offset="0%" stop-color="rgb(20,30,36)"/><stop offset="100%" stop-color="rgb(233,108,76)"/></linearGradient><linearGradient x1="7.5789" y1="13.6579" x2="7.5508" y2="17.6956" id="gradient6398" gradientUnits="userSpaceOnUse"><stop offset="0%" stop-color="rgb(20,30,36)"/><stop offset="100%" stop-color="rgb(233,108,76)"/></linearGradient><linearGradient x1="24.4079" y1="13.6602" x2="24.5474" y2="20.7602" id="gradient6399" gradientUnits="userSpaceOnUse"><stop offset="0%" stop-color="rgb(20,30,36)"/><stop offset="100%" stop-color="rgb(233,108,76)"/></linearGradient><linearGradient x1="24.4079" y1="13.6602" x2="24.436" y2="17.698" id="gradient6400" gradientUnits="userSpaceOnUse"><stop offset="0%" stop-color="rgb(20,30,36)"/><stop offset="100%" stop-color="rgb(233,108,76)"/></linearGradient></defs><g><path d="M0,0 L32,0 L32,32 L0,32 L0,0 Z" fill="transparent" opacity="1"/></g><g><path d="M3.3684,30.3158 L3.3684,13.4737 C3.3684,6.6724 8.5985,2.0905 15.1579,1.6842 C22.5596,1.2258 28.6316,6.0712 28.6316,13.4737 L28.6316,30.3158 L3.3684,30.3158 Z" fill="rgb(49,110,125)" opacity="1"/><path d="M5.0526,30.3158 L5.0526,13.4737 C5.0526,10.4222 6.3833,7.7114 8.5963,5.8071 C10.3867,4.2664 12.6554,3.3729 15.1579,3.3684 C13.4661,3.8254 12.0442,4.7839 10.9436,6.0738 C9.2686,8.0367 8.4211,10.6567 8.4211,13.4737 L8.4211,20.2105 C10.4769,18.579 12.7566,17.3494 15.1579,16.8421 C16.8305,16.4888 18.5379,16.4888 20.2105,16.8421 C22.6118,17.3494 24.8915,18.579 26.9474,20.2105 L26.9474,30.3158 L5.0526,30.3158 Z" fill="rgb(20,30,36)" opacity="1"/><path d="M10.1053,28.0702 C10.1053,27.3994 10.5842,26.9474 11.177,26.9474 C11.7699,26.9474 12.2488,27.3994 12.2488,28.0702 L12.2488,29.193 C12.2488,29.8637 11.7699,30.3158 11.177,30.3158 C10.5842,30.3158 10.1053,29.8637 10.1053,29.193 L10.1053,28.0702 Z" fill="rgb(139,188,199)" opacity="1"/><path d="M13.3206,28.0702 C13.3206,27.3994 13.7995,26.9474 14.3923,26.9474 C14.9852,26.9474 15.4641,27.3994 15.4641,28.0702 L15.4641,29.193 C15.4641,29.8637 14.9852,30.3158 14.3923,30.3158 C13.7995,30.3158 13.3206,29.8637 13.3206,29.193 L13.3206,28.0702 Z" fill="rgb(139,188,199)" opacity="1"/><path d="M16.5359,28.0702 C16.5359,27.3994 17.0148,26.9474 17.6077,26.9474 C18.2005,26.9474 18.6794,27.3994 18.6794,28.0702 L18.6794,29.193 C18.6794,29.8637 18.2005,30.3158 17.6077,30.3158 C17.0148,30.3158 16.5359,29.8637 16.5359,29.193 L16.5359,28.0702 Z" fill="rgb(139,188,199)" opacity="1"/><path d="M19.7512,28.0702 C19.7512,27.3994 20.2301,26.9474 20.823,26.9474 C21.4158,26.9474 21.8947,27.3994 21.8947,28.0702 L21.8947,29.193 C21.8947,29.8637 21.4158,30.3158 20.823,30.3158 C20.2301,30.3158 19.7512,29.8637 19.7512,29.193 L19.7512,28.0702 Z" fill="rgb(139,188,199)" opacity="1"/></g><g><path d="M11.7895,15.6303 C13.0177,14.5867 14.4724,14.0218 15.9996,14.0217 C17.527,14.0216 18.982,14.5867 20.2105,15.6303 L20.2105,19.3684 C18.9702,18.3599 17.5176,17.8166 15.9996,17.8166 C14.4818,17.8167 13.0295,18.36 11.7895,19.3684 L11.7895,15.6303 Z" fill="rgb(233,108,76)" opacity="0.25"/><path d="M11.7895,16.1677 C13.0177,15.1241 14.4724,14.5591 15.9996,14.559 C17.527,14.559 18.982,15.124 20.2105,16.1677 L20.2105,18.8974 C18.9702,17.8889 17.5176,17.3455 15.9996,17.3456 C14.4818,17.3457 13.0295,17.889 11.7895,18.8974 L11.7895,16.1677 Z" fill="rgb(233,108,76)" opacity="0.25"/><path d="M0,17.6842 C-0.0061,13.4901 3.3754,10.1007 7.579,10.1053 C11.7718,10.1099 15.1579,13.4921 15.1579,17.6842 C15.1579,21.8763 11.7718,25.2586 7.579,25.2632 C3.3754,25.2678 -0.0061,21.8783 0,17.6842 Z" fill="rgb(233,108,76)" opacity="0.25"/><path d="M0.8106,17.6713 C0.8052,13.9329 3.8193,10.9118 7.5661,10.9159 C11.3033,10.92 14.3215,13.9347 14.3215,17.6713 C14.3215,21.408 11.3033,24.4227 7.5661,24.4268 C3.8193,24.4309 0.8052,21.4098 0.8106,17.6713 Z" fill="rgb(233,108,76)" opacity="0.25"/><path d="M16.8421,17.6842 C16.836,13.4901 20.2175,10.1007 24.4211,10.1053 C28.6139,10.1099 32,13.4921 32,17.6842 C32,21.8763 28.6139,25.2586 24.4211,25.2632 C20.2175,25.2678 16.836,21.8783 16.8421,17.6842 Z" fill="rgb(233,108,76)" opacity="0.25"/><path d="M17.6529,17.6884 C17.6474,13.9406 20.6691,10.9119 24.4253,10.9161 C28.1718,10.9202 31.1976,13.9425 31.1976,17.6884 C31.1976,21.4344 28.1718,24.4567 24.4253,24.4608 C20.6691,24.4649 17.6474,21.4362 17.6529,17.6884 Z" fill="rgb(233,108,76)" opacity="0.25"/></g><g><path d="M3.3684,17.6842 C3.365,15.3541 5.2436,13.4711 7.5789,13.4737 C9.9083,13.4762 11.7895,15.3553 11.7895,17.6842 C11.7895,20.0132 9.9083,21.8922 7.5789,21.8947 C5.2436,21.8973 3.365,20.0143 3.3684,17.6842 Z" fill="url(#gradient6390)" opacity="1"/><path d="M11.7895,17.6842 C11.7689,18.8663 11.3058,19.9267 10.5205,20.6986 C9.7316,21.4741 8.6704,21.9135 7.5789,21.8947 C6.2141,21.8713 4.933,21.1275 3.9665,19.9122 C4.5203,17.711 5.8388,16.1239 7.7575,15.8009 C9.3434,15.5339 10.8079,16.2352 11.7895,17.6842 Z" fill="url(#gradient6391)" opacity="1"/><path d="M28.6184,17.6865 C28.6218,15.3565 26.7432,13.4735 24.4079,13.476 C22.0785,13.4786 20.1973,15.3576 20.1973,17.6865 C20.1973,20.0155 22.0785,21.8945 24.4079,21.8971 C26.7432,21.8996 28.6218,20.0166 28.6184,17.6865 Z" fill="url(#gradient6392)" opacity="1"/><path d="M20.1973,17.6865 C20.2179,18.8686 20.681,19.929 21.4663,20.7009 C22.2552,21.4764 23.3164,21.9158 24.4079,21.8971 C25.7727,21.8736 27.0538,21.1298 28.0203,19.9145 C27.5995,17.8066 26.3959,16.2603 24.5306,15.8547 C22.8604,15.4915 21.2982,16.1926 20.1973,17.6865 Z" fill="url(#gradient6393)" opacity="1"/><path d="M11.7895,16.6748 C12.9924,15.6357 14.4272,15.0732 15.9325,15.0625 C17.4781,15.0514 18.9566,15.6216 20.2105,16.6748 L20.2105,18.6375 C19.0071,17.4884 17.5358,16.8573 15.9714,16.8624 C14.4238,16.8674 12.971,17.4951 11.7895,18.6375 L11.7895,16.6748 Z" fill="rgb(255,255,255)" opacity="1"/><path d="M1.6842,17.6842 C1.6795,14.4221 4.3095,11.7859 7.579,11.7895 C10.84,11.7931 13.4737,14.4237 13.4737,17.6842 C13.4737,20.9447 10.84,23.5754 7.579,23.5789 C4.3095,23.5825 1.6795,20.9463 1.6842,17.6842 Z" fill="rgb(255,255,255)" opacity="1"/><path d="M18.5263,17.6842 C18.5216,14.4221 21.1516,11.7859 24.4211,11.7895 C27.6821,11.7931 30.3158,14.4237 30.3158,17.6842 C30.3158,20.9447 27.6821,23.5754 24.4211,23.5789 C21.1516,23.5825 18.5216,20.9463 18.5263,17.6842 Z" fill="rgb(255,255,255)" opacity="1"/><path d="M3.5526,17.6842 C3.5494,15.4561 5.3458,13.6554 7.5789,13.6579 C9.8064,13.6603 11.6053,15.4572 11.6053,17.6842 C11.6053,19.9113 9.8064,21.7081 7.5789,21.7106 C5.3458,21.713 3.5494,19.9124 3.5526,17.6842 Z" fill="url(#gradient6397)" opacity="1"/><path d="M11.6053,17.6842 C11.5856,18.8146 11.1428,19.8286 10.3918,20.5667 C9.6374,21.3083 8.6227,21.7285 7.5789,21.7106 C6.2738,21.6882 5.0488,20.9769 4.1246,19.8147 C4.6541,17.7098 5.915,16.1922 7.7497,15.8833 C9.2662,15.628 10.6667,16.2986 11.6053,17.6842 Z" fill="url(#gradient6398)" opacity="1"/><path d="M28.4342,17.6866 C28.4375,15.4584 26.641,13.6578 24.4079,13.6602 C22.1804,13.6627 20.3816,15.4595 20.3816,17.6866 C20.3816,19.9136 22.1804,21.7104 24.4079,21.7129 C26.641,21.7153 28.4375,19.9147 28.4342,17.6866 Z" fill="url(#gradient6399)" opacity="1"/><path d="M20.3816,17.6866 C20.4012,18.8169 20.8441,19.8309 21.595,20.5691 C22.3494,21.3106 23.3641,21.7308 24.4079,21.7129 C25.713,21.6905 26.9381,20.9792 27.8623,19.8171 C27.4599,17.8014 26.309,16.3227 24.5252,15.9348 C22.9281,15.5875 21.4342,16.258 20.3816,17.6866 Z" fill="url(#gradient6400)" opacity="1"/></g><g><path d="M8.4211,15.1579 C9.3531,15.1565 10.1063,15.908 10.1053,16.8421 C10.1042,17.7738 9.3526,18.5263 8.4211,18.5263 C7.4895,18.5263 6.7379,17.7738 6.7368,16.8421 C6.7358,15.908 7.489,15.1565 8.4211,15.1579 Z" fill="rgb(20,30,36)" opacity="0.1"/><path d="M23.5789,15.1579 C24.511,15.1565 25.2642,15.908 25.2632,16.8421 C25.2621,17.7738 24.5105,18.5263 23.5789,18.5263 C22.6474,18.5263 21.8958,17.7738 21.8947,16.8421 C21.8937,15.908 22.6469,15.1565 23.5789,15.1579 Z" fill="rgb(20,30,36)" opacity="0.1"/></g></svg>

<svg xmlns="http://www.w3.org/2000/svg" viewBox="0 0 32 32"><defs><linearGradient id="a" x1="7.579" x2="7.433" y1="13.474" y2="20.898" gradientUnits="userSpaceOnUse"><stop offset="0%" stop-color="#141e24"/><stop offset="100%" stop-color="#e96c4c"/></linearGradient><linearGradient id="b" x1="7.579" x2="7.55" y1="13.474" y2="17.696" gradientUnits="userSpaceOnUse"><stop offset="0%" stop-color="#141e24"/><stop offset="100%" stop-color="#e96c4c"/></linearGradient><linearGradient id="c" x1="24.408" x2="24.554" y1="13.476" y2="20.901" gradientUnits="userSpaceOnUse"><stop offset="0%" stop-color="#141e24"/><stop offset="100%" stop-color="#e96c4c"/></linearGradient><linearGradient id="d" x1="24.408" x2="24.437" y1="13.476" y2="17.698" gradientUnits="userSpaceOnUse"><stop offset="0%" stop-color="#141e24"/><stop offset="100%" stop-color="#e96c4c"/></linearGradient><linearGradient id="e" x1="7.579" x2="7.439" y1="13.658" y2="20.758" gradientUnits="userSpaceOnUse"><stop offset="0%" stop-color="#141e24"/><stop offset="100%" stop-color="#e96c4c"/></linearGradient><linearGradient id="f" x1="7.579" x2="7.551" y1="13.658" y2="17.696" gradientUnits="userSpaceOnUse"><stop offset="0%" stop-color="#141e24"/><stop offset="100%" stop-color="#e96c4c"/></linearGradient><linearGradient id="g" x1="24.408" x2="24.547" y1="13.66" y2="20.76" gradientUnits="userSpaceOnUse"><stop offset="0%" stop-color="#141e24"/><stop offset="100%" stop-color="#e96c4c"/></linearGradient><linearGradient id="h" x1="24.408" x2="24.436" y1="13.66" y2="17.698" gradientUnits="userSpaceOnUse"><stop offset="0%" stop-color="#141e24"/><stop offset="100%" stop-color="#e96c4c"/></linearGradient></defs><path fill="transparent" d="M0 0h32v32H0z"/><path fill="#316e7d" d="M3.368 30.316V13.474c0-6.802 5.23-11.383 11.79-11.79 7.402-.458 13.474 4.387 13.474 11.79v16.842z"/><path fill="#141e24" d="M5.053 30.316V13.474c0-3.052 1.33-5.763 3.543-7.667a10 10 0 0 1 6.562-2.439c-1.692.457-3.114 1.416-4.214 2.706-1.675 1.963-2.523 4.583-2.523 7.4v6.736c2.056-1.631 4.336-2.86 6.737-3.368a12.2 12.2 0 0 1 5.053 0c2.4.507 4.68 1.737 6.736 3.369v10.105z"/><path fill="#8bbcc7" d="M10.105 28.07c0-.67.48-1.123 1.072-1.123s1.072.452 1.072 1.123v1.123c0 .67-.48 1.123-1.072 1.123s-1.072-.452-1.072-1.123zm3.215 0c0-.67.48-1.123 1.072-1.123s1.072.452 1.072 1.123v1.123c0 .67-.479 1.123-1.072 1.123-.592 0-1.071-.452-1.071-1.123zm3.216 0c0-.67.479-1.123 1.072-1.123s1.071.452 1.071 1.123v1.123c0 .67-.478 1.123-1.071 1.123s-1.072-.452-1.072-1.123zm3.215 0c0-.67.48-1.123 1.072-1.123s1.072.452 1.072 1.123v1.123c0 .67-.48 1.123-1.072 1.123s-1.072-.452-1.072-1.123z"/><g fill="#e96c4c"><path d="M11.79 15.63c1.228-1.043 2.682-1.608 4.21-1.608 1.527 0 2.982.565 4.21 1.608v3.738c-1.24-1.008-2.692-1.551-4.21-1.551s-2.97.543-4.21 1.551z" opacity=".25"/><path d="M11.79 16.168c1.228-1.044 2.682-1.609 4.21-1.609 1.527 0 2.982.565 4.21 1.609v2.73c-1.24-1.01-2.692-1.552-4.21-1.552s-2.97.543-4.21 1.551z" opacity=".25"/><path d="M0 17.684a7.555 7.555 0 0 1 7.579-7.579 7.573 7.573 0 0 1 7.579 7.58 7.573 7.573 0 0 1-7.579 7.578A7.556 7.556 0 0 1 0 17.684" opacity=".25"/><path d="M.81 17.671a6.735 6.735 0 0 1 6.756-6.755 6.75 6.75 0 0 1 6.756 6.755 6.75 6.75 0 0 1-6.756 6.756A6.735 6.735 0 0 1 .811 17.67m16.031.014a7.555 7.555 0 0 1 7.58-7.579A7.573 7.573 0 0 1 32 17.685a7.573 7.573 0 0 1-7.579 7.578 7.556 7.556 0 0 1-7.579-7.579" opacity=".25"/><path d="M17.653 17.688a6.75 6.75 0 0 1 6.772-6.772 6.767 6.767 0 0 1 6.773 6.772 6.767 6.767 0 0 1-6.773 6.773 6.75 6.75 0 0 1-6.772-6.773" opacity=".25"/></g><path fill="url(#a)" d="M3.368 17.684a4.197 4.197 0 0 1 4.21-4.21 4.207 4.207 0 0 1 4.212 4.21 4.207 4.207 0 0 1-4.211 4.21 4.197 4.197 0 0 1-4.21-4.21"/><path fill="url(#b)" d="M11.79 17.684c-.021 1.182-.484 2.243-1.27 3.015a4.12 4.12 0 0 1-2.941 1.196c-1.365-.024-2.646-.767-3.612-1.983.553-2.201 1.872-3.788 3.79-4.111 1.586-.267 3.05.434 4.033 1.883"/><path fill="url(#c)" d="M28.618 17.687a4.2 4.2 0 0 0-4.21-4.211 4.207 4.207 0 0 0-4.21 4.21 4.207 4.207 0 0 0 4.21 4.211 4.2 4.2 0 0 0 4.21-4.21"/><path fill="url(#d)" d="M20.197 17.687c.02 1.182.484 2.242 1.27 3.014a4.12 4.12 0 0 0 2.94 1.196c1.366-.023 2.647-.767 3.613-1.982-.42-2.108-1.624-3.655-3.49-4.06-1.67-.364-3.232.338-4.333 1.831"/><path fill="#fff" d="M11.79 16.675c1.202-1.04 2.637-1.602 4.143-1.613 1.545-.01 3.024.56 4.278 1.613v1.962c-1.204-1.149-2.675-1.78-4.24-1.775-1.547.005-3 .633-4.181 1.776z"/><path fill="#fff" d="M1.684 17.684A5.876 5.876 0 0 1 7.58 11.79a5.89 5.89 0 0 1 5.895 5.895A5.89 5.89 0 0 1 7.58 23.58a5.876 5.876 0 0 1-5.895-5.895m16.841-.001a5.876 5.876 0 0 1 5.895-5.895 5.89 5.89 0 0 1 5.895 5.895 5.89 5.89 0 0 1-5.895 5.895 5.876 5.876 0 0 1-5.895-5.895"/><path fill="url(#e)" d="M3.553 17.684a4.014 4.014 0 0 1 4.026-4.026 4.023 4.023 0 0 1 4.026 4.026 4.023 4.023 0 0 1-4.026 4.027 4.014 4.014 0 0 1-4.026-4.027"/><path fill="url(#f)" d="M11.605 17.684c-.02 1.13-.462 2.145-1.213 2.883a3.94 3.94 0 0 1-2.813 1.144c-1.305-.023-2.53-.734-3.454-1.896.53-2.105 1.79-3.623 3.625-3.932 1.516-.255 2.917.416 3.855 1.801"/><path fill="url(#g)" d="M28.434 17.687a4.014 4.014 0 0 0-4.026-4.027 4.023 4.023 0 0 0-4.026 4.027 4.023 4.023 0 0 0 4.026 4.026 4.014 4.014 0 0 0 4.026-4.026"/><path fill="url(#h)" d="M20.382 17.687c.02 1.13.462 2.144 1.213 2.882a3.94 3.94 0 0 0 2.813 1.144c1.305-.023 2.53-.734 3.454-1.896-.402-2.016-1.553-3.494-3.337-3.882-1.597-.348-3.09.323-4.143 1.752"/><path fill="#141e24" d="M8.421 15.158a1.68 1.68 0 0 1 1.684 1.684 1.683 1.683 0 1 1-3.368 0 1.68 1.68 0 0 1 1.684-1.684m15.158 0a1.68 1.68 0 0 1 1.684 1.684 1.683 1.683 0 1 1-3.368 0 1.68 1.68 0 0 1 1.684-1.684" opacity=".1"/></svg>
